X:1
T:Hark! The Angels Singing
T:J. Wright, 1869
T:Hark! The Angels Singing
T:Public Domain
T:Public Domain
C:J. Wright, 1869
Z:Public Domain
%%score ( 1 2 ) ( 3 4 )
L:1/8
M:2/4
K:Eb
V:1 treble 
V:2 treble 
V:3 bass 
V:4 bass 
V:1
 E>E E[DF] | [EG] [GB]3 | [Ac][GB] [EG]E | [DF]4 | E>E E[DF] | [EG] [GB]3 | [DB]>[B,D] [B,D][B,F] | %7
w: 1.~Hark! the an- gels|the hap-|py morn, Joy- ful|ings|bring- ing, “Christ the|In a|low- ly man- ger,|
w: 2.~Sis- ters dear and|a joy-|ful lay! This of|the|o- thers, Is the|Hear the|bless- èd sto- ry,|
w: 3.~Where’s a chor- us|His ad-|vent here? Where a|ol|sweet- er To His|None can|come so near Him,|
 [B,E]4 | [EG][EG] [EG][FA] | [GB]2 [EG]2 | [FA][FA] [DB][FA] | [EG]4 | [EG][EG] [EG][FA] | %13
w: This|shall be the sign,|See the|new- born strang- er,|Hail|the Babe di- vine.|
w: Once|as young as we,|Christ, the|Prince of Glo- ry,|Slept|on Ma- ry’s knee.|
w: Ho-|ly, un- de- filed,|None so|love and fear Him,|As|a Christ- ian child.|
 [GB]2 [EG]2 [FA][FA][EG][DF] | E4 ||"^Refrain" [GB]2 [GB]2 | [Be]2 [Ge]2 | [Fe][Ge] [Af][Fd] | %18
w: |||||
w: Glo- ry, glo- ry, in the|high-|sing; Glo-|ry, glo-|ry, to our heav’n-|
w: |||||
 [Ge]4 | [GB]2 [GB]2 | [Be]2 [GB]2 | [GB][EG] [FA][DF] | E4 |] x4 |] %24
w: ||||||
w: ly|king. *|||||
w: ||||||
V:2
 E>E E x | x4 | x3 E | x4 | E>E E x | x4 | x4 | x4 | x4 | x4 | x4 | x4 | x4 | x8 | E4 || x4 | x4 | %17
w: sing- ing Make||tid-||Lord is born.”|||||||||||||
w: bro- thers, Sing||all||child- ren’s day.||||||||||est|||
w: meet- er For||car-||gen- tle ear?|||||||||||||
 x4 | x4 | x4 | x4 | x4 | E4 |] x4 |] %24
w: |||||||
w: |||||||
w: |||||||
V:3
 [E,G,]>[E,G,] [E,G,][B,,B,] | [E,B,] [E,E]3 | [E,E][E,E] [E,B,][E,G,] | [B,,B,]4 | %4
 [E,G,]>[E,G,] [E,G,][B,,B,] | [E,B,] [E,B,]3 | [B,,B,]>[B,,F,] [B,,F,][B,,A,] | [E,G,]4 | %8
 [E,B,][E,B,] [E,B,][E,B,] | [E,E]2 [E,B,]2 | [D,B,][D,B,] [B,,B,][B,,B,] | [E,B,]4 | %12
 [E,B,][E,B,] [E,B,][E,B,] | [E,E]2 [E,B,]2 x4 | [A,,C][A,,C] [B,,B,][B,,A,] || [E,G,]4 | %16
 [E,E]2 [E,E]2 | [G,E]2 [E,B,]2 | B,B, [B,,B,][B,,B,] | [E,B,]4 | [E,E]2 [E,E]2 | [G,E]2 [E,E]2 | %22
 [B,,E][B,,B,] [B,,B,][B,,A,] |] [E,G,]4 |] %24
V:4
 x4 | x4 | x4 | x4 | x4 | x4 | x4 | x4 | x4 | x4 | x4 | x4 | x4 | x8 | x4 || x4 | x4 | x4 | %18
 B,B, x2 | x4 | x4 | x4 | x4 |] x4 |] %24

